src/icons/outline/communication/chat-bubble.svg

<svg width="24" height="24" viewBox="0 0 24 24" fill="none" xmlns="http://www.w3.org/2000/svg">
<g clip-path="url(#clip0_4191_616)">
<path d="M12 2.75C17.8082 2.75 22.25 6.53451 22.25 10.8848C22.2497 15.0998 18.0801 18.7901 12.54 19.0166L12 19.0283H11.998C10.8354 19.0316 9.67817 18.8707 8.5625 18.5508L8.2959 18.4746L8.04395 18.5889L2.87793 20.9453L4.70996 17.3613L4.98926 16.8145L4.50781 16.4326C3.65947 15.7589 2.97324 14.9116 2.49707 13.9512C2.08048 13.1109 1.83383 12.2011 1.76758 11.2725L1.75 10.873C1.75771 6.53645 6.1974 2.75 12 2.75Z" stroke="#3C3B44" stroke-width="1.5"/>
</g>
<defs>
<clipPath id="clip0_4191_616">
<rect width="24" height="24" fill="white"/>
</clipPath>
</defs>
</svg>

<svg xmlns="http://www.w3.org/2000/svg" width="24" height="24" fill="none" viewBox="0 0 24 24"><g clip-path="url(#a)"><path stroke="currentColor" stroke-width="1.5" d="M12 2.75c5.808 0 10.25 3.785 10.25 8.135 0 4.215-4.17 7.905-9.71 8.132l-.54.011h-.002a12.3 12.3 0 0 1-3.435-.477l-.267-.076-.252.114-5.166 2.356 1.832-3.584.28-.547-.482-.381a7.3 7.3 0 0 1-2.01-2.482 7.2 7.2 0 0 1-.73-2.678l-.018-.4C1.758 6.536 6.197 2.75 12 2.75Z"/></g><defs><clipPath id="a"><path fill="currentColor" d="M0 0h24v24H0z"/></clipPath></defs></svg>
